X: 40099
T: Tich's
R: reel
M: 4/4
K: Gmajor
|:dc|BcdB (3cdc BA|GBgf e/f/gdc|BcdB GABG|FAAB ADdc|
BcdB (3cdc BA|GBgf e/f/gdc|BcdB cAFA|{B}AGGF G2:|
|:ag|fgaf (3gag fe|dcAc BGGg|fgaf gedB|cA{B}AG ADdc|
BcdB cdeg|fgaf e/f/gdc|BcdB cAFA|{B}AGGF G2:|

